icon/pk/scan-setting.svg

<svg width="48" height="48" fill="none" xmlns="http://www.w3.org/2000/svg"><rect x="5" y="5" width="38" height="38" rx="3" fill="#2F88FF" stroke="#000" stroke-width="4" stroke-linecap="round" stroke-linejoin="round"/><path d="m34 21 3 3-3 3M14 21l-3 3 3 3M27 14l-3-3-3 3M27 34l-3 3-3-3" stroke="#fff" stroke-width="4" stroke-linecap="round" stroke-linejoin="round"/></svg>

<svg viewBox="0 0 48 48" fill="none" xmlns="http://www.w3.org/2000/svg" height="1em" width="1em">
  <rect x="5" y="5" width="38" height="38" rx="3" fill="#2F88FF" stroke="black" stroke-width="4" stroke-linecap="round" stroke-linejoin="round"/>
  <path d="M34 21L37 24L34 27" stroke="white" stroke-width="4" stroke-linecap="round" stroke-linejoin="round"/>
  <path d="M14 21L11 24L14 27" stroke="white" stroke-width="4" stroke-linecap="round" stroke-linejoin="round"/>
  <path d="M27 14L24 11L21 14" stroke="white" stroke-width="4" stroke-linecap="round" stroke-linejoin="round"/>
  <path d="M27 34L24 37L21 34" stroke="white" stroke-width="4" stroke-linecap="round" stroke-linejoin="round"/>
</svg>
